assets/icons/24px/outline/shield-24px.svg

<svg width="24" height="24" viewBox="0 0 24 24" fill="none" xmlns="http://www.w3.org/2000/svg">
<path d="M5 7.69275C5 6.12811 5 5.34579 5.45114 4.79356C5.90228 4.24132 6.66888 4.08526 8.20208 3.77315L10.8031 3.24365C11.3995 3.12224 11.6977 3.06153 12 3.06153C12.3023 3.06153 12.6005 3.12224 13.1969 3.24365L15.7979 3.77315C17.3311 4.08526 18.0977 4.24132 18.5489 4.79356C19 5.34579 19 6.12811 19 7.69276V8.71739C19 11.5629 19 12.9856 18.5357 14.2883C18.4535 14.5191 18.3607 14.7459 18.2577 14.9681C17.6759 16.2228 16.6788 17.2377 14.6846 19.2674V19.2674C13.5047 20.4684 12.9148 21.0689 12.1876 21.1374C12.0628 21.1491 11.9372 21.1491 11.8124 21.1374C11.0852 21.0689 10.4953 20.4684 9.31539 19.2674V19.2674C7.3212 17.2377 6.32411 16.2228 5.74233 14.9681C5.63928 14.7459 5.54649 14.5191 5.46426 14.2883C5 12.9856 5 11.5629 5 8.71739V7.69275Z" stroke="white" stroke-width="2"/>
</svg>

<svg width="24" height="24" fill="none" xmlns="http://www.w3.org/2000/svg"><path d="M5 7.693c0-1.565 0-2.347.451-2.9.451-.552 1.218-.708 2.751-1.02l2.601-.53c.596-.12.895-.181 1.197-.181.302 0 .6.06 1.197.182l2.6.53c1.534.311 2.3.467 2.752 1.02C19 5.346 19 6.128 19 7.693v1.024c0 2.846 0 4.269-.464 5.571-.083.231-.175.458-.278.68-.582 1.255-1.58 2.27-3.573 4.3-1.18 1.2-1.77 1.8-2.497 1.87a2.01 2.01 0 0 1-.376 0c-.727-.07-1.317-.67-2.497-1.87-1.994-2.03-2.99-3.045-3.573-4.3a7.987 7.987 0 0 1-.278-.68C5 12.986 5 11.563 5 8.718V7.692z" stroke="#fff" stroke-width="2"/></svg>
